X:89
T: Da kam die Maus von allen Musen daher (Band 1), S. 246
N: P0864
O: Lothringen
S: PINCK, Louis: Verklingende Weisen, Bd 1, Metz 1928]
R: Trink-, Zechlied]
M: 2/4
L: 1/16
K: G
 | D4D3G | G6G2 | G2B2d2B2 | B4A2
A2 | c2c2c2A2 | B4d2G2 | A2A2E2F2 | G4z2
G2 | F3GA2G2 | FFE2D4 |
G4B4 | d6c2 | BBG2A2A2 | G4z4

@@@ Tune index: 7639
